; generated by Slic3r Prusa Edition 1.41.1-rc+linux64 on 2018-11-25 at 14:59:46

; 

; external perimeters extrusion width = 0.45mm
; perimeters extrusion width = 0.45mm
; infill extrusion width = 0.45mm
; solid infill extrusion width = 0.45mm
; top infill extrusion width = 0.40mm

M107
M190 S55 ; set bed temperature and wait for it to be reached
M104 S195 ; set temperature
G28 X0 Y0		;move X/Y to min endstops
G28 Z0			;move Z to min endstops
G1 Z15.0 F9000	;move the platform down 15mm
G1 F200 E33	;extrude 3mm of feed stock
G1 F9000
G5
; Filament gcode
M109 S195 ; set temperature and wait for it to be reached
G21 ; set units to millimeters
G90 ; use absolute coordinates
M83 ; use relative distances for extrusion
G1 E-5.00000 F4200.00000
G1 Z0.500 F9000.000
G1 X81.571 Y82.789
G1 Z0.200
G1 E5.00000 F4200.00000
G1 F2259.35
G1 X82.511 Y82.372 E0.03480
G1 X83.498 Y82.107 E0.03458
G1 X84.520 Y81.997 E0.03480
G1 X127.212 Y81.994 E1.44508
G1 X128.605 Y82.144 E0.04743
G1 X129.941 Y82.586 E0.04764
G1 X131.153 Y83.302 E0.04764
G1 X132.186 Y84.258 E0.04764
G1 X138.586 Y92.871 E0.36322
G1 X139.564 Y94.817 E0.07374
G1 X140.061 Y96.709 E0.06619
G1 X140.199 Y98.033 E0.04508
G1 X140.199 Y117.473 E0.65800
G1 X140.123 Y119.152 E0.05691
G1 X139.546 Y121.426 E0.07939
G1 X138.634 Y123.230 E0.06843
G1 X137.821 Y124.355 E0.04700
G1 X136.292 Y125.844 E0.07222
G1 X134.811 Y126.800 E0.05969
G1 X133.730 Y127.288 E0.04015
G1 X131.978 Y127.818 E0.06195
G1 X130.080 Y128.001 E0.06453
G1 X80.038 Y128.001 E1.69387
G1 X77.948 Y127.796 E0.07108
G1 X76.456 Y127.360 E0.05262
G1 X75.646 Y127.028 E0.02965
G1 X73.643 Y125.786 E0.07979
G1 X72.472 Y124.669 E0.05475
G1 X71.924 Y124.036 E0.02836
G1 X71.019 Y122.619 E0.05691
G1 X70.594 Y121.746 E0.03287
G1 X70.057 Y120.074 E0.05945
G1 X69.868 Y118.877 E0.04101
G1 X69.801 Y117.601 E0.04326
G1 X69.802 Y98.117 E0.65950
G1 X69.865 Y97.275 E0.02858
G1 X70.103 Y95.958 E0.04533
G1 X70.403 Y94.961 E0.03522
G1 X71.065 Y93.485 E0.05477
G1 X71.523 Y92.738 E0.02965
G1 X72.386 Y91.623 E0.04773
G1 X80.052 Y83.918 E0.36791
G1 X80.713 Y83.342 E0.02965
G1 X81.521 Y82.821 E0.03255
G1 E-5.00000 F4200.00000
G1 Z0.700 F9000.000
G1 X81.740 Y83.165
G1 Z0.200
G1 E5.00000 F4200.00000
G1 F2259.35
G1 X82.667 Y82.748 E0.03439
G1 X83.594 Y82.503 E0.03246
G1 X84.548 Y82.403 E0.03246
G1 X127.212 Y82.401 E1.44412
G1 X128.530 Y82.544 E0.04490
G1 X129.789 Y82.964 E0.04490
G1 X130.929 Y83.642 E0.04490
G1 X131.899 Y84.548 E0.04490
G1 X138.240 Y93.086 E0.36000
G1 X139.189 Y94.976 E0.07161
G1 X139.667 Y96.813 E0.06422
G1 X139.792 Y98.035 E0.04159
G1 X139.792 Y117.466 E0.65770
G1 X139.722 Y119.084 E0.05483
G1 X139.164 Y121.285 E0.07684
G1 X138.279 Y123.029 E0.06621
G1 X137.509 Y124.094 E0.04449
G1 X136.020 Y125.539 E0.07022
G1 X134.602 Y126.451 E0.05707
G1 X133.587 Y126.907 E0.03765
G1 X131.898 Y127.419 E0.05976
G1 X130.058 Y127.595 E0.06257
G1 X80.050 Y127.595 E1.69270
G1 X78.042 Y127.400 E0.06830
G1 X76.592 Y126.976 E0.05113
G1 X75.824 Y126.662 E0.02810
G1 X73.891 Y125.462 E0.07701
G1 X72.753 Y124.374 E0.05330
G1 X72.232 Y123.768 E0.02706
G1 X71.365 Y122.405 E0.05466
G1 X70.968 Y121.586 E0.03080
G1 X70.450 Y119.968 E0.05752
G1 X70.273 Y118.833 E0.03889
G1 X70.208 Y117.600 E0.04177
G1 X70.209 Y98.125 E0.65921
G1 X70.269 Y97.322 E0.02727
G1 X70.504 Y96.031 E0.04441
G1 X70.789 Y95.090 E0.03329
G1 X71.434 Y93.657 E0.05321
G1 X71.868 Y92.956 E0.02789
G1 X72.711 Y91.869 E0.04656
G1 X80.340 Y84.206 E0.36601
G1 X80.986 Y83.646 E0.02893
G1 X81.690 Y83.197 E0.02826
; PURGING FINISHED
G1 E-5.00000 F4200.00000
G1 Z0.700 F9000.000
G1 X126.980 Y95.029
G1 Z0.200
G1 E5.00000 F4200.00000
G1 F2259.35
G1 X129.992 Y95.029 E0.10192
G1 X130.825 Y95.132 E0.02843
G1 X131.596 Y95.429 E0.02795
G1 X132.253 Y95.893 E0.02723
G1 X132.810 Y96.531 E0.02868
G1 X133.181 Y97.268 E0.02793
G1 X133.362 Y98.074 E0.02795
G1 X133.342 Y98.899 E0.02795
G1 X133.122 Y99.695 E0.02795
G1 X132.715 Y100.414 E0.02795
G1 X132.145 Y101.012 E0.02795
G1 X131.448 Y101.454 E0.02795
G1 X130.663 Y101.713 E0.02795
G1 X129.840 Y101.774 E0.02795
G1 X129.026 Y101.632 E0.02795
G1 X128.271 Y101.298 E0.02795
G1 X127.609 Y100.781 E0.02843
G1 X124.207 Y97.379 E0.16284
G1 X85.803 Y97.379 E1.29993
G1 X82.401 Y100.781 E0.16285
G1 X81.751 Y101.291 E0.02799
G1 X81.009 Y101.625 E0.02753
G1 X80.209 Y101.772 E0.02753
G1 X79.397 Y101.722 E0.02753
G1 X78.621 Y101.481 E0.02753
G1 X77.925 Y101.060 E0.02753
G1 X77.350 Y100.485 E0.02753
G1 X76.929 Y99.789 E0.02753
G1 X76.687 Y99.012 E0.02753
G1 X76.638 Y98.201 E0.02753
G1 X76.785 Y97.401 E0.02753
G1 X77.119 Y96.659 E0.02753
G1 X77.629 Y96.008 E0.02799
G1 X84.807 Y88.829 E0.34365
G1 X126.980 Y88.829 E1.42751
G1 X126.980 Y94.969 E0.20783
G1 X127.163 Y95.385 F9000.000
G1 E-5.00000 F4200.00000
G1 Z0.700 F9000.000
G1 X82.932 Y98.404
G1 Z0.200
G1 E5.00000 F4200.00000
G1 F2259.35
G1 X82.847 Y99.105 E0.02388
G1 X82.597 Y99.764 E0.02388
G1 X82.196 Y100.345 E0.02388
G1 X81.668 Y100.813 E0.02388
G1 X81.075 Y101.124 E0.02268
G1 X80.360 Y101.310 E0.02501
G1 X79.653 Y101.310 E0.02393
G1 X78.968 Y101.141 E0.02388
G1 X78.343 Y100.813 E0.02388
G1 X77.815 Y100.345 E0.02388
G1 X77.414 Y99.764 E0.02388
G1 X77.164 Y99.105 E0.02388
G1 X77.083 Y98.440 E0.02268
G1 X77.163 Y97.705 E0.02501
G1 X77.414 Y97.044 E0.02393
G1 X77.815 Y96.464 E0.02388
G1 X78.343 Y95.996 E0.02388
G1 X78.968 Y95.668 E0.02388
G1 X79.653 Y95.499 E0.02388
G1 X80.358 Y95.499 E0.02388
G1 X81.043 Y95.668 E0.02388
G1 X81.668 Y95.996 E0.02388
G1 X82.196 Y96.464 E0.02388
G1 X82.597 Y97.044 E0.02388
G1 X82.847 Y97.704 E0.02388
G1 X82.925 Y98.345 E0.02185
G1 X83.278 Y98.604 F9000.000
G1 E-5.00000 F4200.00000
G1 Z0.700 F9000.000
G1 X104.080 Y95.729
G1 Z0.200
G1 E5.00000 F4200.00000
G1 F2259.35
G1 X104.080 Y90.479 E0.17771
G1 X117.781 Y90.479 E0.46376
G1 X117.791 Y90.201 E0.00942
G1 X117.858 Y89.968 E0.00820
G1 X117.981 Y89.759 E0.00820
G1 X118.151 Y89.587 E0.00820
G1 X118.358 Y89.462 E0.00820
G1 X118.590 Y89.392 E0.00820
G1 X118.832 Y89.381 E0.00820
G1 X119.070 Y89.429 E0.00820
G1 X119.287 Y89.535 E0.00820
G1 X119.473 Y89.691 E0.00820
G1 X119.614 Y89.888 E0.00820
G1 X119.702 Y90.114 E0.00820
G1 X119.732 Y90.353 E0.00816
G1 X119.718 Y90.479 E0.00430
G1 X120.481 Y90.479 E0.02585
G1 X120.491 Y90.201 E0.00942
G1 X120.558 Y89.968 E0.00820
G1 X120.681 Y89.759 E0.00820
G1 X120.851 Y89.587 E0.00820
G1 X121.058 Y89.462 E0.00820
G1 X121.290 Y89.392 E0.00820
G1 X121.532 Y89.381 E0.00820
G1 X121.769 Y89.429 E0.00820
G1 X121.987 Y89.535 E0.00820
G1 X122.173 Y89.691 E0.00820
G1 X122.314 Y89.888 E0.00820
G1 X122.405 Y90.120 E0.00843
G1 X122.428 Y90.479 E0.01218
G1 X122.530 Y90.479 E0.00346
G1 X122.530 Y95.729 E0.17771
G1 X122.418 Y95.729 E0.00382
G1 X122.432 Y95.856 E0.00430
G1 X122.402 Y96.095 E0.00816
G1 X122.314 Y96.320 E0.00820
G1 X122.173 Y96.517 E0.00820
G1 X121.987 Y96.674 E0.00820
G1 X121.769 Y96.779 E0.00820
G1 X121.532 Y96.828 E0.00820
G1 X121.290 Y96.817 E0.00820
G1 X121.058 Y96.747 E0.00820
G1 X120.851 Y96.622 E0.00820
G1 X120.681 Y96.449 E0.00820
G1 X120.558 Y96.240 E0.00820
G1 X120.491 Y96.008 E0.00820
G1 X120.481 Y95.729 E0.00942
G1 X119.718 Y95.729 E0.02585
G1 X119.732 Y95.856 E0.00430
G1 X119.702 Y96.095 E0.00816
G1 X119.614 Y96.320 E0.00820
G1 X119.473 Y96.517 E0.00820
G1 X119.287 Y96.674 E0.00820
G1 X119.070 Y96.779 E0.00820
G1 X118.832 Y96.828 E0.00820
G1 X118.590 Y96.817 E0.00820
G1 X118.358 Y96.747 E0.00820
G1 X118.151 Y96.622 E0.00820
G1 X117.981 Y96.449 E0.00820
G1 X117.858 Y96.240 E0.00820
G1 X117.791 Y96.008 E0.00820
G1 X117.781 Y95.729 E0.00942
G1 X114.318 Y95.729 E0.11724
G1 X114.332 Y95.856 E0.00430
G1 X114.302 Y96.095 E0.00816
G1 X114.214 Y96.320 E0.00820
G1 X114.073 Y96.517 E0.00820
G1 X113.887 Y96.674 E0.00820
G1 X113.670 Y96.779 E0.00820
G1 X113.432 Y96.828 E0.00820
G1 X113.190 Y96.817 E0.00820
G1 X112.958 Y96.747 E0.00820
G1 X112.751 Y96.622 E0.00820
G1 X112.581 Y96.449 E0.00820
G1 X112.458 Y96.240 E0.00820
G1 X112.391 Y96.008 E0.00820
G1 X112.381 Y95.729 E0.00942
G1 X104.140 Y95.729 E0.27895
G1 X103.680 Y95.725 F9000.000
G1 E-5.00000 F4200.00000
G1 Z0.700 F9000.000
G1 X119.648 Y89.236
G1 Z0.200
G1 E5.00000 F4200.00000
G1 F2259.35
G1 X120.625 Y89.236 E0.03308
G1 X120.355 Y89.510 E0.01299
G1 X120.084 Y89.972 E0.01816
G1 X119.974 Y89.693 E0.01017
G1 X119.683 Y89.285 E0.01696
G1 E-5.00000 F4200.00000
G1 Z0.700 F9000.000
G1 X117.925 Y89.236
G1 Z0.200
G1 E5.00000 F4200.00000
G1 F2259.35
G1 X117.655 Y89.510 E0.01299
G1 X117.481 Y89.806 E0.01165
G1 X117.404 Y90.072 E0.00937
G1 X103.673 Y90.072 E0.46477
G1 X103.673 Y96.136 E0.20526
G1 X112.004 Y96.136 E0.28199
G1 X112.081 Y96.402 E0.00937
G1 X112.255 Y96.699 E0.01165
G1 X112.525 Y96.972 E0.01299
G1 X85.635 Y96.972 E0.91020
G1 X83.412 Y99.195 E0.10641
G1 X83.255 Y99.119 E0.00589
G1 X83.342 Y98.404 E0.02437
G1 X83.245 Y97.606 E0.02723
G1 X82.960 Y96.854 E0.02723
G1 X82.503 Y96.192 E0.02723
G1 X81.901 Y95.658 E0.02723
G1 X81.189 Y95.284 E0.02723
G1 X80.408 Y95.092 E0.02723
G1 X79.603 Y95.092 E0.02723
G1 X79.298 Y95.167 E0.01064
G1 X79.207 Y95.006 E0.00628
G1 X84.976 Y89.236 E0.27617
G1 X117.865 Y89.236 E1.11325
G1 E-5.00000 F4200.00000
G1 Z0.700 F9000.000
G1 X117.404 Y96.136
G1 Z0.200
G1 E5.00000 F4200.00000
G1 F2259.35
G1 X117.481 Y96.402 E0.00937
G1 X117.655 Y96.699 E0.01165
G1 X117.925 Y96.972 E0.01299
G1 X114.248 Y96.972 E0.12448
G1 X114.574 Y96.516 E0.01899
G1 X114.723 Y96.136 E0.01380
G1 X117.344 Y96.136 E0.08872
G1 E-5.00000 F4200.00000
G1 Z0.700 F9000.000
G1 X119.648 Y96.972
G1 Z0.200
G1 E5.00000 F4200.00000
G1 F2259.35
G1 X119.974 Y96.516 E0.01899
G1 X120.084 Y96.237 E0.01016
G1 X120.355 Y96.699 E0.01816
G1 X120.625 Y96.972 E0.01299
G1 X119.708 Y96.972 E0.03105
G1 E-5.00000 F4200.00000
G1 Z0.700 F9000.000
G1 X122.348 Y96.972
G1 Z0.200
G1 E5.00000 F4200.00000
G1 F2259.35
G1 X122.674 Y96.516 E0.01899
G1 X122.823 Y96.136 E0.01380
G1 X122.937 Y96.136 E0.00388
G1 X122.937 Y90.072 E0.20526
G1 X122.823 Y90.072 E0.00388
G1 X122.674 Y89.693 E0.01380
G1 X122.348 Y89.236 E0.01899
G1 X126.573 Y89.236 E0.14304
G1 X126.573 Y95.436 E0.20986
G1 X128.360 Y95.436 E0.06049
G1 X127.508 Y96.192 E0.03855
G1 X127.051 Y96.854 E0.02723
G1 X126.766 Y97.606 E0.02723
G1 X126.669 Y98.404 E0.02723
G1 X126.755 Y99.119 E0.02437
G1 X126.599 Y99.195 E0.00589
G1 X124.376 Y96.972 E0.10641
G1 X122.408 Y96.972 E0.06663
G1 E-5.00000 F4200.00000
G1 Z0.700 F9000.000
G1 X127.164 Y97.704
G1 Z0.200
G1 E5.00000 F4200.00000
G1 F2259.35
G1 X127.414 Y97.044 E0.02388
G1 X127.815 Y96.464 E0.02388
G1 X128.343 Y95.996 E0.02388
G1 X128.968 Y95.668 E0.02388
G1 X129.653 Y95.499 E0.02388
G1 X130.358 Y95.499 E0.02388
G1 X131.043 Y95.668 E0.02388
G1 X131.668 Y95.996 E0.02388
G1 X132.196 Y96.464 E0.02388
G1 X132.597 Y97.044 E0.02388
G1 X132.847 Y97.704 E0.02388
G1 X132.932 Y98.404 E0.02388
G1 X132.847 Y99.105 E0.02388
G1 X132.597 Y99.764 E0.02388
G1 X132.196 Y100.345 E0.02388
G1 X131.668 Y100.813 E0.02388
G1 X131.075 Y101.124 E0.02268
G1 X130.360 Y101.310 E0.02501
G1 X129.653 Y101.310 E0.02393
G1 X128.968 Y101.141 E0.02388
G1 X128.343 Y100.813 E0.02388
G1 X127.815 Y100.345 E0.02388
G1 X127.414 Y99.764 E0.02388
G1 X127.164 Y99.105 E0.02388
G1 X127.079 Y98.404 E0.02388
G1 X127.157 Y97.764 E0.02185
G1 X126.875 Y97.427 F9000.000
G1 E-5.00000 F4200.00000
G1 Z0.700 F9000.000
G1 X126.572 Y98.184
G1 Z0.200
G1 E5.00000 F4200.00000
G1 F2156.82
G1 X123.243 Y94.854 E0.16697
G1 X123.243 Y94.251 E0.02138
G1 X126.483 Y97.491 E0.16247
G1 X126.649 Y97.054 E0.01658
G1 X123.243 Y93.648 E0.17078
G1 X123.243 Y93.045 E0.02138
G1 X126.963 Y96.765 E0.18657
G1 E-5.00000 F4200.00000
G1 Z0.700 F9000.000
G1 X126.963 Y95.559
G1 Z0.200
G1 E5.00000 F4200.00000
G1 F2156.82
G1 X127.338 Y95.934 E0.01883
G1 X127.278 Y95.988 E0.00287
G1 X127.078 Y96.277 E0.01246
G1 X123.243 Y92.442 E0.19232
G1 X123.243 Y91.839 E0.02138
G1 X126.268 Y94.864 E0.15170
G1 X126.268 Y94.261 E0.02138
G1 X123.243 Y91.235 E0.15170
G1 X123.243 Y90.632 E0.02138
G1 X126.268 Y93.658 E0.15170
G1 X126.268 Y93.055 E0.02138
G1 X123.243 Y90.029 E0.15170
G1 X123.243 Y89.767 E0.00930
G1 X123.031 Y89.767 E0.00750
G1 X122.942 Y89.542 E0.00859
G1 X123.358 Y89.542 E0.01476
G1 X126.268 Y92.452 E0.14591
G1 X126.268 Y91.849 E0.02138
G1 X123.961 Y89.542 E0.11567
G1 X124.564 Y89.542 E0.02138
G1 X126.268 Y91.245 E0.08543
G1 X126.268 Y90.642 E0.02138
G1 X125.167 Y89.542 E0.05519
G1 X125.770 Y89.542 E0.02138
G1 X126.451 Y90.223 E0.03414
G1 E-5.00000 F4200.00000
G1 Z0.700 F9000.000
G1 X122.887 Y96.307
G1 Z0.200
G1 E5.00000 F4200.00000
G1 F2156.82
G1 X123.247 Y96.667 E0.01803
G1 X123.850 Y96.667 E0.02138
G1 X123.243 Y96.060 E0.03044
G1 X123.243 Y95.457 E0.02138
G1 X126.595 Y98.809 E0.16809
G1 E-5.00000 F4200.00000
G1 Z0.700 F9000.000
G1 X117.061 Y96.850
G1 Z0.200
G1 E5.00000 F4200.00000
G1 F2220.69
G1 X116.653 Y96.442 E0.01989
G1 X116.067 Y96.442 E0.02017
G1 X116.292 Y96.667 E0.01097
G1 X115.706 Y96.667 E0.02017
G1 X115.481 Y96.442 E0.01097
G1 X114.931 Y96.442 E0.01893
G1 X114.921 Y96.468 E0.00096
G1 X115.304 Y96.850 E0.01863
G1 E-5.00000 F4200.00000
G1 Z0.700 F9000.000
G1 X112.146 Y96.850
G1 Z0.200
G1 E5.00000 F4200.00000
G1 F2250.58
G1 X111.738 Y96.442 E0.01963
G1 X111.160 Y96.442 E0.01964
G1 X111.385 Y96.667 E0.01082
G1 X110.807 Y96.667 E0.01964
G1 X110.582 Y96.442 E0.01082
G1 X110.004 Y96.442 E0.01964
G1 X110.229 Y96.667 E0.01082
G1 X109.651 Y96.667 E0.01964
G1 X109.426 Y96.442 E0.01082
G1 X108.848 Y96.442 E0.01964
G1 X109.073 Y96.667 E0.01082
G1 X108.495 Y96.667 E0.01964
G1 X108.270 Y96.442 E0.01082
G1 X107.692 Y96.442 E0.01964
G1 X107.917 Y96.667 E0.01082
G1 X107.339 Y96.667 E0.01964
G1 X107.114 Y96.442 E0.01082
G1 X106.536 Y96.442 E0.01964
G1 X106.761 Y96.667 E0.01082
G1 X106.183 Y96.667 E0.01964
G1 X105.958 Y96.442 E0.01082
G1 X105.380 Y96.442 E0.01964
G1 X105.605 Y96.667 E0.01082
G1 X105.027 Y96.667 E0.01964
G1 X104.802 Y96.442 E0.01082
G1 X104.224 Y96.442 E0.01964
G1 X104.450 Y96.667 E0.01082
G1 X103.872 Y96.667 E0.01964
G1 X96.746 Y89.542 E0.34241
G1 X97.324 Y89.542 E0.01964
G1 X103.368 Y95.585 E0.29044
G1 X103.368 Y95.008 E0.01964
G1 X97.902 Y89.542 E0.26266
G1 X98.480 Y89.542 E0.01964
G1 X103.368 Y94.430 E0.23489
G1 X103.368 Y93.852 E0.01964
G1 X99.058 Y89.542 E0.20712
G1 X99.636 Y89.542 E0.01964
G1 X103.368 Y93.274 E0.17934
G1 X103.368 Y92.696 E0.01964
G1 X100.214 Y89.542 E0.15157
G1 X100.792 Y89.542 E0.01964
G1 X103.368 Y92.118 E0.12380
G1 X103.368 Y91.540 E0.01964
G1 X101.370 Y89.542 E0.09602
G1 X101.948 Y89.542 E0.01964
G1 X103.368 Y90.962 E0.06825
G1 X103.368 Y90.384 E0.01964
G1 X102.526 Y89.542 E0.04047
G1 X103.104 Y89.542 E0.01964
G1 X103.368 Y89.806 E0.01270
G1 X103.368 Y89.767 E0.00133
G1 X103.907 Y89.767 E0.01831
G1 X103.682 Y89.542 E0.01082
G1 X104.260 Y89.542 E0.01964
G1 X104.485 Y89.767 E0.01082
G1 X105.063 Y89.767 E0.01964
G1 X104.838 Y89.542 E0.01082
G1 X105.415 Y89.542 E0.01964
G1 X105.641 Y89.767 E0.01082
G1 X106.219 Y89.767 E0.01964
G1 X105.993 Y89.542 E0.01082
G1 X106.571 Y89.542 E0.01964
G1 X106.797 Y89.767 E0.01082
G1 X107.375 Y89.767 E0.01964
G1 X107.149 Y89.542 E0.01082
G1 X107.727 Y89.542 E0.01964
G1 X107.953 Y89.767 E0.01082
G1 X108.530 Y89.767 E0.01964
G1 X108.305 Y89.542 E0.01082
G1 X108.883 Y89.542 E0.01964
G1 X109.108 Y89.767 E0.01082
G1 X109.686 Y89.767 E0.01964
G1 X109.461 Y89.542 E0.01082
G1 X110.039 Y89.542 E0.01964
G1 X110.264 Y89.767 E0.01082
G1 X110.842 Y89.767 E0.01964
G1 X110.617 Y89.542 E0.01082
G1 X111.195 Y89.542 E0.01964
G1 X111.420 Y89.767 E0.01082
G1 X111.998 Y89.767 E0.01964
G1 X111.773 Y89.542 E0.01082
G1 X112.351 Y89.542 E0.01964
G1 X112.576 Y89.767 E0.01082
G1 X113.154 Y89.767 E0.01964
G1 X112.929 Y89.542 E0.01082
G1 X113.507 Y89.542 E0.01964
G1 X113.732 Y89.767 E0.01082
G1 X114.310 Y89.767 E0.01964
G1 X114.085 Y89.542 E0.01082
G1 X114.663 Y89.542 E0.01964
G1 X114.888 Y89.767 E0.01082
G1 X115.466 Y89.767 E0.01964
G1 X115.240 Y89.542 E0.01082
G1 X115.818 Y89.542 E0.01964
G1 X116.044 Y89.767 E0.01082
G1 X116.622 Y89.767 E0.01964
G1 X116.396 Y89.542 E0.01082
G1 X116.974 Y89.542 E0.01964
G1 X117.328 Y89.896 E0.01700
G1 E-5.00000 F4200.00000
G1 Z0.700 F9000.000
G1 X103.477 Y96.850
G1 Z0.200
G1 E5.00000 F4200.00000
G1 F2250.58
