; generated by Slic3r Prusa Edition 1.41.1-rc+linux64 on 2018-10-21 at 18:35:17

; 

; external perimeters extrusion width = 0.45mm
; perimeters extrusion width = 0.45mm
; infill extrusion width = 0.45mm
; solid infill extrusion width = 0.45mm
; top infill extrusion width = 0.40mm

M107
M190 S60 ; set bed temperature and wait for it to be reached
M104 S210 ; set temperature
G28 X0 Y0 ;move X/Y to min endstops
G28 Z0 ;move Z to min endstops
G1 Z15.0 F9000 ;move the platform down 15mm
G1 F200 E3 ;extrude 3mm of feed stock
G1 F9000
M117 Printing...
G5
; Filament gcode
M109 S210 ; set temperature and wait for it to be reached
G21 ; set units to millimeters
G90 ; use absolute coordinates
M83 ; use relative distances for extrusion
G1 E-5.00000 F2400.00000
G1 Z1.000 F9000.000
G1 X77.121 Y93.399
G1 Z0.200
G1 E5.00000 F2400.00000
G1 F1434.23
G1 X78.046 Y92.832 E0.03673
G1 X78.975 Y92.455 E0.03394
G1 X79.951 Y92.222 E0.03394
G1 X80.950 Y92.140 E0.03394
G1 X127.218 Y92.139 E1.56612
G1 X128.555 Y92.277 E0.04550
G1 X129.837 Y92.683 E0.04550
G1 X131.010 Y93.340 E0.04550
G1 X132.026 Y94.220 E0.04550
G1 X138.405 Y101.835 E0.33626
G1 X139.482 Y103.835 E0.07689
G1 X140.031 Y105.749 E0.06738
G1 X140.190 Y107.103 E0.04614
G1 X140.188 Y108.414 E0.04437
G1 X140.079 Y109.321 E0.03094
G1 X139.551 Y111.290 E0.06900
G1 X138.624 Y113.124 E0.06956
G1 X138.151 Y113.800 E0.02793
G1 X137.313 Y114.766 E0.04327
G1 X136.374 Y115.627 E0.04315
G1 X134.739 Y116.701 E0.06621
G1 X132.888 Y117.442 E0.06749
G1 X131.843 Y117.684 E0.03630
G1 X130.076 Y117.858 E0.06010
G1 X80.293 Y117.849 E1.68508
G1 X78.721 Y117.774 E0.05328
G1 X77.730 Y117.586 E0.03415
G1 X75.979 Y117.031 E0.06216
G1 X74.415 Y116.176 E0.06033
G1 X73.544 Y115.540 E0.03651
G1 X72.377 Y114.423 E0.05468
G1 X71.686 Y113.538 E0.03801
G1 X70.800 Y112.050 E0.05862
G1 X70.196 Y110.407 E0.05926
G1 X69.914 Y109.054 E0.04679
G1 X69.808 Y107.734 E0.04482
G1 X69.837 Y106.845 E0.03008
G1 X70.194 Y104.854 E0.06850
G1 X70.946 Y102.968 E0.06871
G1 X75.281 Y95.423 E0.29456
G1 X75.740 Y94.737 E0.02793
G1 X76.407 Y93.989 E0.03394
G1 X77.075 Y93.438 E0.02930
G1 X76.053 Y94.998 F9000.000
G1 F1434.23
G1 X76.690 Y94.281 E0.03246
G1 X77.430 Y93.671 E0.03246
G1 X78.250 Y93.186 E0.03225
G1 X79.141 Y92.830 E0.03246
G1 X80.039 Y92.620 E0.03121
G1 X80.958 Y92.547 E0.03121
G1 X127.218 Y92.546 E1.56584
G1 X128.476 Y92.677 E0.04283
G1 X129.682 Y93.060 E0.04283
G1 X130.786 Y93.680 E0.04283
G1 X131.744 Y94.515 E0.04304
G1 X138.063 Y102.057 E0.33306
G1 X139.106 Y103.991 E0.07436
G1 X139.633 Y105.836 E0.06495
G1 X139.783 Y107.111 E0.04345
G1 X139.782 Y108.386 E0.04316
G1 X139.678 Y109.253 E0.02955
G1 X139.169 Y111.150 E0.06650
G1 X138.270 Y112.923 E0.06726
G1 X137.005 Y114.500 E0.06845
G1 X136.110 Y115.315 E0.04097
G1 X134.534 Y116.348 E0.06379
G1 X132.724 Y117.066 E0.06591
G1 X131.765 Y117.284 E0.03329
G1 X130.069 Y117.451 E0.05769
G1 X80.294 Y117.442 E1.68483
G1 X78.777 Y117.371 E0.05141
G1 X77.834 Y117.192 E0.03246
G1 X76.145 Y116.659 E0.05998
G1 X74.628 Y115.829 E0.05850
G1 X73.800 Y115.223 E0.03474
G1 X72.675 Y114.146 E0.05273
G1 X72.018 Y113.302 E0.03620
G1 X71.163 Y111.864 E0.05662
G1 X70.569 Y110.238 E0.05860
G1 X70.316 Y108.980 E0.04345
G1 X70.214 Y107.709 E0.04314
G1 X70.245 Y106.855 E0.02893
G1 X70.590 Y104.949 E0.06557
G1 X71.319 Y103.131 E0.06630
G1 X76.023 Y95.050 E0.31650
; PURGING FINISHED
G1 E-5.00000 F2400.00000
G1 Z1.200 F9000.000
G1 X127.170 Y106.951
G1 Z0.200
G1 E5.00000 F2400.00000
G1 F1434.23
G1 X127.420 Y106.290 E0.02393
G1 X127.821 Y105.709 E0.02388
G1 X128.349 Y105.241 E0.02388
G1 X128.974 Y104.914 E0.02388
G1 X129.659 Y104.745 E0.02388
G1 X130.364 Y104.745 E0.02388
G1 X131.049 Y104.914 E0.02388
G1 X131.674 Y105.241 E0.02388
G1 X132.202 Y105.709 E0.02388
G1 X132.603 Y106.290 E0.02388
G1 X132.853 Y106.950 E0.02388
G1 X132.938 Y107.650 E0.02388
G1 X132.853 Y108.350 E0.02388
G1 X132.603 Y109.010 E0.02388
G1 X132.202 Y109.591 E0.02388
G1 X131.674 Y110.059 E0.02388
G1 X131.049 Y110.386 E0.02388
G1 X130.364 Y110.555 E0.02388
G1 X129.659 Y110.555 E0.02388
G1 X128.974 Y110.386 E0.02388
G1 X128.349 Y110.059 E0.02388
G1 X127.821 Y109.591 E0.02388
G1 X127.420 Y109.010 E0.02388
G1 X127.170 Y108.350 E0.02388
G1 X127.089 Y107.685 E0.02268
G1 X127.163 Y107.011 E0.02298
G1 E-5.00000 F2400.00000
G1 Z1.200 F9000.000
G1 X122.537 Y104.975
G1 Z0.200
G1 E5.00000 F2400.00000
G1 F1434.23
G1 X104.087 Y104.975 E0.62451
G1 X104.087 Y99.725 E0.17771
G1 X122.537 Y99.725 E0.62451
G1 X122.537 Y104.915 E0.17568
G1 E-5.00000 F2400.00000
G1 Z1.200 F9000.000
G1 X123.312 Y104.950
G1 X103.312 Y104.950
G1 X100.712 Y102.350
G1 X84.573 Y102.350
G1 X83.681 Y102.426
G1 X83.577 Y106.674
G1 X82.938 Y107.650
G1 Z0.200
G1 E5.00000 F2400.00000
G1 F1434.23
G1 X82.853 Y108.350 E0.02388
G1 X82.603 Y109.010 E0.02388
G1 X82.202 Y109.591 E0.02388
G1 X81.674 Y110.059 E0.02388
G1 X81.049 Y110.386 E0.02388
G1 X80.364 Y110.555 E0.02388
G1 X79.659 Y110.555 E0.02388
G1 X78.974 Y110.386 E0.02388
G1 X78.349 Y110.059 E0.02388
G1 X77.821 Y109.591 E0.02388
G1 X77.420 Y109.010 E0.02388
G1 X77.170 Y108.350 E0.02388
G1 X77.085 Y107.650 E0.02388
G1 X77.170 Y106.950 E0.02388
G1 X77.408 Y106.323 E0.02268
G1 X77.820 Y105.710 E0.02501
G1 X78.349 Y105.241 E0.02393
G1 X78.974 Y104.914 E0.02388
G1 X79.659 Y104.745 E0.02388
G1 X80.364 Y104.745 E0.02388
G1 X81.049 Y104.914 E0.02388
G1 X81.674 Y105.241 E0.02388
G1 X82.176 Y105.686 E0.02268
G1 X82.603 Y106.289 E0.02501
G1 X82.853 Y106.950 E0.02393
G1 X82.931 Y107.590 E0.02185
G1 E-5.00000 F2400.00000
G1 Z1.200 F9000.000
G1 X83.577 Y106.674
G1 X83.681 Y102.426
G1 X100.712 Y102.350
G1 X103.312 Y99.750
G1 X104.408 Y98.975
G1 Z0.200
G1 E5.00000 F2400.00000
G1 F1434.23
G1 X126.987 Y98.975 E0.76428
G1 X126.987 Y104.275 E0.17940
G1 X129.998 Y104.275 E0.10193
G1 X130.819 Y104.375 E0.02799
G1 X131.579 Y104.663 E0.02753
G1 X132.249 Y105.125 E0.02753
G1 X132.788 Y105.734 E0.02753
G1 X133.166 Y106.454 E0.02753
G1 X133.360 Y107.243 E0.02753
G1 X133.360 Y108.057 E0.02753
G1 X133.166 Y108.846 E0.02753
G1 X132.788 Y109.566 E0.02753
G1 X132.249 Y110.175 E0.02753
G1 X131.579 Y110.637 E0.02753
G1 X130.819 Y110.925 E0.02753
G1 X129.998 Y111.025 E0.02799
G1 X128.024 Y111.025 E0.06681
G1 X127.261 Y110.939 E0.02600
G1 X126.548 Y110.689 E0.02557
G1 X125.908 Y110.288 E0.02557
G1 X125.388 Y109.767 E0.02491
G1 X124.972 Y109.113 E0.02624
G1 X124.723 Y108.401 E0.02555
G1 X124.637 Y107.637 E0.02600
G1 X124.637 Y105.725 E0.06473
G1 X85.020 Y105.725 E1.34097
G1 X82.941 Y109.326 E0.14073
G1 X82.444 Y109.987 E0.02799
G1 X81.815 Y110.501 E0.02753
G1 X81.080 Y110.850 E0.02753
G1 X80.283 Y111.012 E0.02753
G1 X79.471 Y110.980 E0.02753
G1 X78.710 Y110.759 E0.02681
G1 X77.985 Y110.346 E0.02824
G1 X77.399 Y109.783 E0.02750
G1 X76.964 Y109.096 E0.02753
G1 X76.707 Y108.325 E0.02753
G1 X76.641 Y107.514 E0.02753
G1 X76.771 Y106.711 E0.02753
G1 X77.096 Y105.951 E0.02799
G1 X81.123 Y98.975 E0.27265
G1 X104.348 Y98.975 E0.78612
G1 E-5.00000 F2400.00000
G1 Z1.200 F9000.000
G1 X103.501 Y105.603
G1 Z0.200
G1 E5.00000 F2400.00000
G1 F1421.7
G1 X97.179 Y99.280 E0.30533
G1 X96.598 Y99.280 E0.01983
G1 X102.737 Y105.420 E0.29648
G1 X102.156 Y105.420 E0.01983
G1 X96.017 Y99.280 E0.29648
G1 X95.436 Y99.280 E0.01983
G1 X101.576 Y105.420 E0.29648
G1 X100.995 Y105.420 E0.01983
G1 X94.856 Y99.280 E0.29648
G1 X94.275 Y99.280 E0.01983
G1 X100.414 Y105.420 E0.29648
G1 X99.833 Y105.420 E0.01983
G1 X93.694 Y99.280 E0.29648
G1 X93.113 Y99.280 E0.01983
G1 X99.253 Y105.420 E0.29648
G1 X98.672 Y105.420 E0.01983
G1 X92.532 Y99.280 E0.29648
G1 X91.952 Y99.280 E0.01983
G1 X98.091 Y105.420 E0.29648
G1 X97.510 Y105.420 E0.01983
G1 X91.371 Y99.280 E0.29648
G1 X90.790 Y99.280 E0.01983
G1 X96.930 Y105.420 E0.29648
G1 X96.349 Y105.420 E0.01983
G1 X90.209 Y99.280 E0.29648
G1 X89.629 Y99.280 E0.01983
G1 X95.768 Y105.420 E0.29648
G1 X95.187 Y105.420 E0.01983
G1 X89.048 Y99.280 E0.29648
G1 X88.467 Y99.280 E0.01983
G1 X94.606 Y105.420 E0.29648
G1 X94.026 Y105.420 E0.01983
G1 X87.886 Y99.280 E0.29648
G1 X87.305 Y99.280 E0.01983
G1 X93.445 Y105.420 E0.29648
G1 X92.864 Y105.420 E0.01983
G1 X86.725 Y99.280 E0.29648
G1 X86.144 Y99.280 E0.01983
G1 X92.283 Y105.420 E0.29648
G1 X91.703 Y105.420 E0.01983
G1 X85.563 Y99.280 E0.29648
G1 X84.982 Y99.280 E0.01983
G1 X91.122 Y105.420 E0.29648
G1 X90.541 Y105.420 E0.01983
G1 X84.402 Y99.280 E0.29648
G1 X83.821 Y99.280 E0.01983
G1 X89.960 Y105.420 E0.29648
G1 X89.379 Y105.420 E0.01983
G1 X83.240 Y99.280 E0.29648
G1 X82.659 Y99.280 E0.01983
G1 X88.799 Y105.420 E0.29648
G1 X88.218 Y105.420 E0.01983
G1 X82.079 Y99.280 E0.29648
G1 X81.498 Y99.280 E0.01983
G1 X87.637 Y105.420 E0.29648
G1 X87.056 Y105.420 E0.01983
G1 X81.159 Y99.523 E0.28478
G1 X80.947 Y99.891 E0.01452
G1 X86.476 Y105.420 E0.26700
G1 X85.895 Y105.420 E0.01983
G1 X80.734 Y100.259 E0.24921
G1 X80.522 Y100.627 E0.01452
G1 X85.314 Y105.420 E0.23143
G1 X84.844 Y105.420 E0.01606
G1 X84.803 Y105.490 E0.00276
G1 X80.309 Y100.995 E0.21704
G1 X80.096 Y101.364 E0.01452
G1 X84.591 Y105.858 E0.21704
G1 X84.378 Y106.226 E0.01452
G1 X79.884 Y101.732 E0.21704
G1 X79.671 Y102.100 E0.01452
G1 X84.166 Y106.594 E0.21704
G1 X83.953 Y106.963 E0.01452
G1 X79.459 Y102.468 E0.21704
G1 X79.246 Y102.836 E0.01452
G1 X80.996 Y104.586 E0.08448
G1 X80.401 Y104.439 E0.02090
G1 X80.268 Y104.439 E0.00454
G1 X79.034 Y103.205 E0.05963
G1 X78.821 Y103.573 E0.01452
G1 X79.688 Y104.439 E0.04185
G1 X79.622 Y104.439 E0.00224
G1 X79.209 Y104.541 E0.01453
G1 X78.608 Y103.941 E0.02899
G1 X78.396 Y104.309 E0.01452
G1 X78.765 Y104.678 E0.01783
G1 X78.384 Y104.878 E0.01469
G1 X78.183 Y104.677 E0.00970
G1 X77.971 Y105.046 E0.01452
G1 X78.166 Y105.241 E0.00942
G1 E-5.00000 F2400.00000
G1 Z1.200 F9000.000
G1 X79.063 Y104.093
G1 X80.458 Y103.205
G1 X83.013 Y102.248
G1 X83.681 Y102.426
G1 X83.577 Y106.674
G1 X83.044 Y107.795
G1 Z0.200
G1 E5.00000 F2400.00000
G1 F1421.7
G1 X83.315 Y108.067 E0.01312
G1 X83.528 Y107.699 E0.01452
G1 X83.214 Y107.385 E0.01518
G1 X83.152 Y106.876 E0.01750
G1 X83.070 Y106.660 E0.00788
G1 X83.875 Y107.465 E0.03886
G1 E-5.00000 F2400.00000
G1 Z1.200 F9000.000
G1 X83.577 Y106.674
G1 X83.681 Y102.426
G1 X100.712 Y102.350
G1 X103.312 Y104.950
G1 X123.312 Y104.950
G1 X124.762 Y103.500
G1 X125.412 Y104.150
G1 X126.087 Y105.714
G1 X125.914 Y106.702
G1 X125.917 Y108.128
G1 X124.841 Y108.358
G1 Z0.200
G1 E5.00000 F2400.00000
G1 F1421.7
G1 X127.011 Y110.528 E0.10482
G1 X127.329 Y110.639 E0.01151
G1 X127.751 Y110.687 E0.01448
G1 X124.975 Y107.911 E0.13406
G1 X124.942 Y107.620 E0.00999
G1 X124.942 Y107.297 E0.01102
G1 X128.364 Y110.720 E0.16527
G1 X128.945 Y110.720 E0.01983
G1 X128.911 Y110.685 E0.00166
G1 E-5.00000 F2400.00000
G1 Z1.200 F9000.000
G1 X127.007 Y108.782
G1 Z0.200
G1 E5.00000 F2400.00000
G1 F1421.7
G1 X124.942 Y106.717 E0.09973
G1 X124.942 Y106.136 E0.01983
G1 X127.032 Y108.226 E0.10093
G1 E-5.00000 F2400.00000
G1 Z1.200 F9000.000
G1 X127.269 Y104.397
G1 Z0.200
G1 E5.00000 F2400.00000
G1 F1421.7
G1 X128.008 Y105.136 E0.03569
G1 X128.174 Y104.988 E0.00761
G1 X128.349 Y104.897 E0.00673
G1 X128.033 Y104.580 E0.01528
G1 X128.613 Y104.580 E0.01983
G1 X128.866 Y104.832 E0.01218
G1 E-5.00000 F2400.00000
G1 Z1.200 F9000.000
G1 X126.865 Y103.993
G1 Z0.200
G1 E5.00000 F2400.00000
G1 F1421.7
G1 X122.842 Y99.970 E0.19426
G1 X122.842 Y100.551 E0.01983
G1 X127.700 Y105.409 E0.23459
G1 X127.591 Y105.505 E0.00497
G1 X127.437 Y105.728 E0.00922
G1 X122.842 Y101.132 E0.22193
G1 X122.842 Y101.713 E0.01983
G1 X127.200 Y106.071 E0.21047
G1 X127.148 Y106.147 E0.00315
G1 X127.024 Y106.475 E0.01198
G1 X122.842 Y102.294 E0.20193
G1 X122.842 Y102.874 E0.01983
G1 X126.868 Y106.900 E0.19442
G1 X126.811 Y107.424 E0.01798
G1 X122.842 Y103.455 E0.19166
G1 X122.842 Y104.036 E0.01983
G1 X124.226 Y105.420 E0.06683
G1 X123.645 Y105.420 E0.01983
G1 X122.842 Y104.617 E0.03878
G1 X122.842 Y105.197 E0.01983
G1 X123.064 Y105.420 E0.01074
G1 X122.484 Y105.420 E0.01983
G1 X122.344 Y105.280 E0.00673
G1 X121.763 Y105.280 E0.01983
G1 X121.903 Y105.420 E0.00673
G1 X121.322 Y105.420 E0.01983
G1 X121.183 Y105.280 E0.00673
G1 X120.602 Y105.280 E0.01983
G1 X120.741 Y105.420 E0.00673
G1 X120.160 Y105.420 E0.01983
G1 X120.021 Y105.280 E0.00673
G1 X119.440 Y105.280 E0.01983
G1 X119.580 Y105.420 E0.00673
G1 X118.999 Y105.420 E0.01983
G1 X118.859 Y105.280 E0.00673
G1 X118.279 Y105.280 E0.01983
G1 X118.418 Y105.420 E0.00673
G1 X117.837 Y105.420 E0.01983
G1 X117.698 Y105.280 E0.00673
G1 X117.117 Y105.280 E0.01983
G1 X117.257 Y105.420 E0.00673
G1 X116.676 Y105.420 E0.01983
G1 X116.536 Y105.280 E0.00673
G1 X115.956 Y105.280 E0.01983
G1 X116.095 Y105.420 E0.00673
G1 X115.514 Y105.420 E0.01983
G1 X115.375 Y105.280 E0.00673
G1 X114.794 Y105.280 E0.01983
G1 X114.933 Y105.420 E0.00673
G1 X114.353 Y105.420 E0.01983
G1 X114.213 Y105.280 E0.00673
G1 X113.632 Y105.280 E0.01983
G1 X113.772 Y105.420 E0.00673
G1 X113.191 Y105.420 E0.01983
G1 X113.052 Y105.280 E0.00673
G1 X112.471 Y105.280 E0.01983
G1 X112.610 Y105.420 E0.00673
G1 X112.030 Y105.420 E0.01983
G1 X111.890 Y105.280 E0.00673
G1 X111.309 Y105.280 E0.01983
G1 X111.449 Y105.420 E0.00673
G1 X110.868 Y105.420 E0.01983
G1 X110.729 Y105.280 E0.00673
G1 X110.148 Y105.280 E0.01983
G1 X110.287 Y105.420 E0.00673
G1 X109.707 Y105.420 E0.01983
G1 X109.567 Y105.280 E0.00673
G1 X108.986 Y105.280 E0.01983
G1 X109.126 Y105.420 E0.00673
G1 X108.545 Y105.420 E0.01983
G1 X108.406 Y105.280 E0.00673
G1 X107.825 Y105.280 E0.01983
G1 X107.964 Y105.420 E0.00673
G1 X107.383 Y105.420 E0.01983
G1 X107.244 Y105.280 E0.00673
G1 X106.663 Y105.280 E0.01983
G1 X106.803 Y105.420 E0.00673
G1 X106.222 Y105.420 E0.01983
G1 X106.082 Y105.280 E0.00673
G1 X105.502 Y105.280 E0.01983
G1 X105.641 Y105.420 E0.00673
G1 X105.060 Y105.420 E0.01983
G1 X104.921 Y105.280 E0.00673
G1 X104.340 Y105.280 E0.01983
G1 X104.480 Y105.420 E0.00673
G1 X103.899 Y105.420 E0.01983
G1 X97.759 Y99.280 E0.29648
G1 X98.340 Y99.280 E0.01983
G1 X103.781 Y104.722 E0.26276
G1 X103.781 Y104.141 E0.01983
G1 X98.921 Y99.280 E0.23472
G1 X99.502 Y99.280 E0.01983
G1 X103.781 Y103.560 E0.20667
G1 X103.781 Y102.979 E0.01983
G1 X100.082 Y99.280 E0.17863
G1 X100.663 Y99.280 E0.01983
G1 X103.781 Y102.398 E0.15058
G1 X103.781 Y101.818 E0.01983
G1 X101.244 Y99.280 E0.12253
G1 X101.825 Y99.280 E0.01983
G1 X103.781 Y101.237 E0.09449
G1 X103.781 Y100.656 E0.01983
G1 X102.406 Y99.280 E0.06644
G1 X102.986 Y99.280 E0.01983
G1 X103.781 Y100.075 E0.03839
G1 X103.781 Y99.495 E0.01983
G1 X103.567 Y99.280 E0.01035
G1 X104.148 Y99.280 E0.01983
G1 X104.287 Y99.420 E0.00673
G1 X104.868 Y99.420 E0.01983
G1 X104.729 Y99.280 E0.00673
G1 X105.309 Y99.280 E0.01983
G1 X105.449 Y99.420 E0.00673
G1 X106.030 Y99.420 E0.01983
G1 X105.890 Y99.280 E0.00673
G1 X106.471 Y99.280 E0.01983
G1 X106.610 Y99.420 E0.00673
G1 X107.191 Y99.420 E0.01983
G1 X107.052 Y99.280 E0.00673
G1 X107.632 Y99.280 E0.01983
G1 X107.772 Y99.420 E0.00673
G1 X108.353 Y99.420 E0.01983
G1 X108.213 Y99.280 E0.00673
G1 X108.794 Y99.280 E0.01983
G1 X108.933 Y99.420 E0.00673
G1 X109.514 Y99.420 E0.01983
G1 X109.375 Y99.280 E0.00673
G1 X109.956 Y99.280 E0.01983
G1 X110.095 Y99.420 E0.00673
G1 X110.676 Y99.420 E0.01983
G1 X110.536 Y99.280 E0.00673
G1 X111.117 Y99.280 E0.01983
G1 X111.257 Y99.420 E0.00673
G1 X111.837 Y99.420 E0.01983
G1 X111.698 Y99.280 E0.00673
G1 X112.279 Y99.280 E0.01983
G1 X112.418 Y99.420 E0.00673
G1 X112.999 Y99.420 E0.01983
G1 X112.859 Y99.280 E0.00673
G1 X113.440 Y99.280 E0.01983
G1 X113.580 Y99.420 E0.00673
G1 X114.160 Y99.420 E0.01983
G1 X114.021 Y99.280 E0.00673
G1 X114.602 Y99.280 E0.01983
G1 X114.741 Y99.420 E0.00673
G1 X115.322 Y99.420 E0.01983
G1 X115.183 Y99.280 E0.00673
G1 X115.763 Y99.280 E0.01983
G1 X115.903 Y99.420 E0.00673
G1 X116.484 Y99.420 E0.01983
G1 X116.344 Y99.280 E0.00673
G1 X116.925 Y99.280 E0.01983
G1 X117.064 Y99.420 E0.00673
G1 X117.645 Y99.420 E0.01983
G1 X117.506 Y99.280 E0.00673
G1 X118.086 Y99.280 E0.01983
G1 X118.226 Y99.420 E0.00673
G1 X118.807 Y99.420 E0.01983
G1 X118.667 Y99.280 E0.00673
G1 X119.248 Y99.280 E0.01983
G1 X119.387 Y99.420 E0.00673
G1 X119.968 Y99.420 E0.01983
G1 X119.829 Y99.280 E0.00673
